icons/1_Primary/VMWare.svg

<svg xmlns="http://www.w3.org/2000/svg" width="1024" height="1024" fill="none">
   <g clip-path="url(#a)">
      <path fill="#56595B" d="M512 1024c282.77 0 512-229.23 512-512S794.77 0 512 0 0 229.23 0 512s229.23 512 512 512Z"/>
      <path fill="#fff" d="M197.75 460.11a13.874 13.874 0 0 0-5.38 1.31 13.578 13.578 0 0 0-6.83 18.58l31.09 67.63c4.89 10.39 10.39 16.18 19.7 16.18 9.31 0 14.81-6 19.67-16.18l27.41-59.73a4.004 4.004 0 0 1 3.94-2.52 4.38 4.38 0 0 1 4.3 4.38v57.87a14.623 14.623 0 0 0 8.66 14.7 14.617 14.617 0 0 0 16.695-3.518 14.623 14.623 0 0 0 3.765-11.182v-47.27a14.502 14.502 0 0 1 4.369-10.993 14.51 14.51 0 0 1 11.101-4.087A14.21 14.21 0 0 1 351 500.33v47.27a14.502 14.502 0 0 0 3.588 11.367 14.514 14.514 0 0 0 10.892 4.843 14.71 14.71 0 0 0 10.894-4.851 14.727 14.727 0 0 0 3.726-11.329v-47.27a14.514 14.514 0 0 1 9.443-14.2 14.507 14.507 0 0 1 5.967-.88 14.208 14.208 0 0 1 10.781 4.218 14.203 14.203 0 0 1 4.059 10.842v47.26a14.61 14.61 0 0 0 25.398 11.332 14.597 14.597 0 0 0 3.032-5.277c.63-1.952.841-4.015.62-6.055v-53.77a33.72 33.72 0 0 0-10.386-24.255 33.708 33.708 0 0 0-24.674-9.345 45 45 0 0 0-31.15 13.27 34.447 34.447 0 0 0-29.92-13.2 49.455 49.455 0 0 0-29.35 13.2 35.186 35.186 0 0 0-26.26-13.2A32.174 32.174 0 0 0 256 481.78l-19.92 46.89-25.49-60.19.3-.11a13.79 13.79 0 0 0-5.311-6.159 13.791 13.791 0 0 0-7.859-2.091l.03-.01Zm503.61 1.64a7.375 7.375 0 0 0-6.751 4.649 7.37 7.37 0 0 0-.519 2.831h.06v85.87a7.38 7.38 0 1 0 14.62 0v-33.4c0-28.34 15.6-42.63 34.7-44.9a7.258 7.258 0 0 0 6.5-7.48 7.05 7.05 0 0 0-7.27-7.32 40.004 40.004 0 0 0-33.94 24v-16.77a7.273 7.273 0 0 0-7.41-7.48h.01Zm-184 .21a7.464 7.464 0 0 0-6.83 5.93l-24.92 71.78-24.65-71.6a7.663 7.663 0 0 0-7.49-6 7.266 7.266 0 0 0-5.118 1.995 7.264 7.264 0 0 0-2.262 5.005 13.11 13.11 0 0 0 .93 3.93l29.78 83 .55-.2a8.706 8.706 0 0 0 8.14 6.62 8.207 8.207 0 0 0 8-6.62l24.68-70.58 24.48 70.58a8.21 8.21 0 0 0 8 6.62h.49a8.724 8.724 0 0 0 8-6.62l30-83c.489-1.259.793-2.583.9-3.93a7.014 7.014 0 0 0-4.527-6.383 6.995 6.995 0 0 0-2.713-.447 7.146 7.146 0 0 0-7 5.71l-25.09 71.86-24.7-71.75a7.793 7.793 0 0 0-7.6-5.93h-1l-.05.03Zm277.84.22a47.813 47.813 0 0 0-43.532 31.804A47.8 47.8 0 0 0 749 512.76a48.244 48.244 0 0 0 2.895 19.184A48.236 48.236 0 0 0 797 563.53l-.21.35a48.734 48.734 0 0 0 36.34-14.73 6.164 6.164 0 0 0 2.221-4.255 6.146 6.146 0 0 0-5.838-6.636 6.155 6.155 0 0 0-4.503 1.661 39.208 39.208 0 0 1-12.782 8.439 39.21 39.21 0 0 1-15.038 2.901 33.799 33.799 0 0 1-33.88-33h69.82a6.748 6.748 0 0 0 6.72-6.75c0-25.82-16.2-49.35-44.74-49.35l.09.02Zm-157 .05c-1.44 0-2.88 0-4.31.16a65.144 65.144 0 0 0-29.45 5.61 6 6 0 0 0-3.91 6.07 6.548 6.548 0 0 0 6.42 6.25c.9-.05 1.782-.271 2.6-.65a49.759 49.759 0 0 1 22.79-4.43c18.88 0 29.24 9.13 29.24 26.75v3.42a103.703 103.703 0 0 0-30.14-4.1c-24.38 0-41.54 10.93-41.54 31.7l-.09-.11c0 20.12 18.34 30.52 36.62 30.52a43.004 43.004 0 0 0 35.47-16.94v9.38a6.743 6.743 0 0 0 2.014 4.894 6.763 6.763 0 0 0 4.926 1.936 6.93 6.93 0 0 0 5.026-2.088 6.971 6.971 0 0 0 1.505-2.334 6.96 6.96 0 0 0 .469-2.738v-54.18a38.708 38.708 0 0 0-10.36-28.58 42.922 42.922 0 0 0-27.33-10.52l.05-.02ZM794.48 474c19.51 0 29.65 15.44 31.12 33.17h-62.24A33.387 33.387 0 0 1 794.48 474Zm-160.81 37.75c9.776.01 19.501 1.417 28.88 4.18v9.48c0 15.58-14.72 26.59-32.79 26.59-13.25 0-24.7-7.13-24.7-19.48 0-12.76 10.24-20.76 28.61-20.76v-.01Z"/>
   </g>
   <defs>
      <clipPath id="a">
         <path fill="#fff" d="M0 0h1024v1024H0z"/>
      </clipPath>
   </defs>
</svg>

<svg width="1024" height="1024" viewBox="0 0 1024 1024" fill="none" xmlns="http://www.w3.org/2000/svg">
<g clip-path="url(#clip0_2_3864)">
<path d="M512 1024C794.77 1024 1024 794.77 1024 512C1024 229.23 794.77 0 512 0C229.23 0 0 229.23 0 512C0 794.77 229.23 1024 512 1024Z" fill="#56595B"/>
<path d="M197.75 460.11C195.887 460.181 194.057 460.626 192.37 461.42C190.663 462.146 189.122 463.213 187.844 464.557C186.565 465.9 185.575 467.492 184.935 469.233C184.296 470.974 184.019 472.827 184.123 474.679C184.227 476.531 184.709 478.342 185.54 480L216.63 547.63C221.52 558.02 227.02 563.81 236.33 563.81C245.64 563.81 251.14 557.81 256 547.63L283.41 487.9C283.719 487.12 284.266 486.457 284.973 486.004C285.68 485.552 286.512 485.334 287.35 485.38C288.497 485.401 289.591 485.872 290.395 486.691C291.199 487.51 291.65 488.612 291.65 489.76V547.63C291.466 549.653 291.706 551.692 292.354 553.618C293.002 555.543 294.044 557.312 295.414 558.812C296.784 560.312 298.452 561.51 300.31 562.33C302.169 563.15 304.178 563.573 306.21 563.573C308.241 563.573 310.25 563.15 312.109 562.33C313.968 561.51 315.635 560.312 317.005 558.812C318.375 557.312 319.417 555.543 320.066 553.618C320.714 551.692 320.954 549.653 320.77 547.63V500.36C320.685 498.324 321.03 496.292 321.783 494.398C322.536 492.504 323.679 490.79 325.139 489.367C326.598 487.945 328.341 486.845 330.254 486.141C332.167 485.437 334.206 485.143 336.24 485.28C338.224 485.2 340.204 485.536 342.05 486.268C343.897 487 345.57 488.111 346.96 489.529C348.351 490.947 349.429 492.641 350.125 494.501C350.821 496.362 351.119 498.347 351 500.33V547.6C350.759 549.641 350.954 551.709 351.573 553.669C352.192 555.628 353.219 557.434 354.588 558.967C355.957 560.499 357.636 561.723 359.514 562.558C361.391 563.393 363.425 563.82 365.48 563.81C367.534 563.806 369.564 563.373 371.44 562.537C373.316 561.702 374.997 560.483 376.374 558.959C377.751 557.435 378.794 555.64 379.436 553.689C380.077 551.738 380.303 549.674 380.1 547.63V500.36C380.016 498.329 380.36 496.303 381.109 494.413C381.858 492.524 382.996 490.813 384.449 489.391C385.902 487.969 387.637 486.868 389.543 486.16C391.448 485.452 393.481 485.152 395.51 485.28C397.502 485.186 399.492 485.514 401.35 486.24C403.207 486.967 404.891 488.077 406.291 489.498C407.691 490.918 408.776 492.618 409.476 494.486C410.175 496.355 410.473 498.349 410.35 500.34V547.6C410.129 549.64 410.34 551.703 410.969 553.655C411.598 555.608 412.631 557.406 414.002 558.932C415.372 560.459 417.048 561.68 418.922 562.516C420.795 563.352 422.823 563.784 424.875 563.784C426.926 563.784 428.954 563.352 430.828 562.516C432.701 561.68 434.377 560.459 435.748 558.932C437.118 557.406 438.151 555.608 438.78 553.655C439.41 551.703 439.621 549.64 439.4 547.6V493.83C439.389 489.297 438.463 484.812 436.679 480.644C434.894 476.477 432.287 472.712 429.014 469.575C425.741 466.438 421.869 463.994 417.629 462.388C413.39 460.783 408.87 460.049 404.34 460.23C392.625 460.43 381.449 465.19 373.19 473.5C369.687 468.993 365.119 465.426 359.896 463.122C354.674 460.818 348.96 459.848 343.27 460.3C332.288 461.305 321.958 465.951 313.92 473.5C310.753 469.537 306.767 466.305 302.234 464.026C297.702 461.748 292.73 460.477 287.66 460.3C280.778 460.02 273.989 461.956 268.29 465.822C262.59 469.689 258.283 475.282 256 481.78L236.08 528.67L210.59 468.48L210.89 468.37C209.779 465.83 207.928 463.683 205.579 462.211C203.229 460.74 200.49 460.011 197.72 460.12L197.75 460.11ZM701.36 461.75C700.391 461.763 699.434 461.967 698.544 462.35C697.655 462.733 696.849 463.288 696.174 463.983C695.499 464.678 694.967 465.499 694.609 466.399C694.252 467.299 694.075 468.261 694.09 469.23H694.15V555.1C694.005 556.145 694.085 557.209 694.386 558.22C694.687 559.231 695.202 560.165 695.894 560.961C696.587 561.756 697.442 562.394 698.402 562.831C699.362 563.268 700.405 563.494 701.46 563.494C702.514 563.494 703.557 563.268 704.517 562.831C705.477 562.394 706.332 561.756 707.025 560.961C707.718 560.165 708.232 559.231 708.533 558.22C708.834 557.209 708.915 556.145 708.77 555.1V521.7C708.77 493.36 724.37 479.07 743.47 476.8C745.299 476.609 746.988 475.73 748.194 474.342C749.401 472.953 750.035 471.158 749.97 469.32C750.007 468.353 749.845 467.389 749.494 466.487C749.142 465.585 748.609 464.765 747.927 464.079C747.245 463.392 746.429 462.853 745.53 462.495C744.63 462.138 743.667 461.969 742.7 462C735.386 462.506 728.353 465.013 722.367 469.245C716.382 473.478 711.674 479.274 708.76 486V469.23C708.788 468.246 708.617 467.266 708.255 466.35C707.894 465.435 707.35 464.602 706.657 463.902C705.965 463.203 705.137 462.651 704.224 462.281C703.312 461.912 702.334 461.731 701.35 461.75H701.36ZM517.36 461.96C515.729 462.064 514.177 462.701 512.943 463.772C511.71 464.843 510.861 466.29 510.53 467.89L485.61 539.67L460.96 468.07C460.581 466.366 459.633 464.843 458.271 463.752C456.909 462.661 455.215 462.067 453.47 462.07C451.568 462.04 449.731 462.756 448.352 464.065C446.972 465.373 446.16 467.17 446.09 469.07C446.195 470.42 446.509 471.746 447.02 473L476.8 556L477.35 555.8C477.803 557.638 478.842 559.279 480.311 560.473C481.78 561.668 483.598 562.351 485.49 562.42C487.382 562.408 489.211 561.742 490.669 560.536C492.127 559.329 493.123 557.656 493.49 555.8L518.17 485.22L542.65 555.8C543.016 557.656 544.012 559.329 545.47 560.536C546.928 561.742 548.758 562.408 550.65 562.42H551.14C553.006 562.319 554.791 561.621 556.231 560.429C557.671 559.237 558.691 557.615 559.14 555.8L589.14 472.8C589.629 471.541 589.933 470.217 590.04 468.87C590.018 467.945 589.812 467.033 589.436 466.187C589.059 465.342 588.518 464.579 587.845 463.944C587.172 463.309 586.379 462.814 585.513 462.487C584.647 462.16 583.725 462.008 582.8 462.04C581.154 462.041 579.559 462.609 578.284 463.65C577.008 464.69 576.131 466.138 575.8 467.75L550.71 539.61L526.01 467.86C525.592 466.162 524.616 464.654 523.237 463.578C521.858 462.503 520.158 461.922 518.41 461.93H517.41L517.36 461.96ZM795.2 462.18C788.818 462.384 782.541 463.865 776.741 466.534C770.94 469.203 765.734 473.007 761.427 477.722C757.121 482.436 753.803 487.966 751.668 493.984C749.534 500.001 748.626 506.386 749 512.76C748.656 519.285 749.641 525.812 751.895 531.944C754.15 538.076 757.628 543.687 762.116 548.435C766.605 553.183 772.012 556.969 778.008 559.564C784.005 562.159 790.466 563.508 797 563.53L796.79 563.88C803.537 564.076 810.251 562.867 816.507 560.332C822.762 557.796 828.423 553.988 833.13 549.15C833.766 548.626 834.291 547.979 834.673 547.248C835.054 546.517 835.285 545.717 835.351 544.895C835.417 544.073 835.318 543.246 835.058 542.464C834.798 541.681 834.383 540.959 833.839 540.34C833.294 539.721 832.63 539.217 831.887 538.86C831.144 538.502 830.337 538.298 829.513 538.259C828.689 538.22 827.866 538.347 827.093 538.632C826.319 538.917 825.611 539.355 825.01 539.92C821.345 543.546 817.002 546.414 812.228 548.359C807.455 550.305 802.344 551.291 797.19 551.26C788.348 551.284 779.85 547.842 773.516 541.673C767.183 535.504 763.519 527.099 763.31 518.26H833.13C834.915 518.252 836.624 517.538 837.883 516.273C839.143 515.007 839.85 513.295 839.85 511.51C839.85 485.69 823.65 462.16 795.11 462.16L795.2 462.18ZM638.2 462.23C636.76 462.23 635.32 462.23 633.89 462.39C623.77 461.945 613.687 463.866 604.44 468C603.217 468.45 602.175 469.286 601.469 470.381C600.764 471.476 600.434 472.771 600.53 474.07C600.606 475.733 601.311 477.304 602.504 478.465C603.696 479.625 605.286 480.289 606.95 480.32C607.85 480.27 608.732 480.049 609.55 479.67C616.691 476.417 624.5 474.899 632.34 475.24C651.22 475.24 661.58 484.37 661.58 501.99V505.41C651.789 502.569 641.633 501.188 631.44 501.31C607.06 501.31 589.9 512.24 589.9 533.01L589.81 532.9C589.81 553.02 608.15 563.42 626.43 563.42C633.263 563.619 640.045 562.186 646.214 559.24C652.382 556.294 657.76 551.92 661.9 546.48V555.86C661.889 556.769 662.061 557.672 662.408 558.513C662.754 559.354 663.266 560.116 663.914 560.754C664.563 561.392 665.333 561.892 666.179 562.225C667.026 562.557 667.931 562.716 668.84 562.69C669.775 562.699 670.702 562.518 671.566 562.159C672.43 561.8 673.212 561.271 673.866 560.602C674.519 559.933 675.031 559.139 675.371 558.268C675.71 557.396 675.869 556.465 675.84 555.53V501.35C676.131 496.134 675.364 490.912 673.583 486C671.803 481.088 669.046 476.588 665.48 472.77C657.885 466.168 648.211 462.444 638.15 462.25L638.2 462.23ZM794.48 474C813.99 474 824.13 489.44 825.6 507.17H763.36C763.396 498.732 766.625 490.621 772.399 484.467C778.172 478.313 786.061 474.574 794.48 474ZM633.67 511.75C643.446 511.76 653.171 513.167 662.55 515.93V525.41C662.55 540.99 647.83 552 629.76 552C616.51 552 605.06 544.87 605.06 532.52C605.06 519.76 615.3 511.76 633.67 511.76V511.75Z" fill="white"/>
</g>
<defs>
<clipPath id="clip0_2_3864">
<rect width="1024" height="1024" fill="white"/>
</clipPath>
</defs>
</svg>
